images/icons/phone.svg

<svg width="24" height="24" viewBox="0 0 24 24" fill="none" xmlns="http://www.w3.org/2000/svg">
<path fill-rule="evenodd" clip-rule="evenodd" d="M19.9995 16.0028V18.4163C20.0013 18.8693 19.8121 19.3021 19.4783 19.6084C19.1444 19.9147 18.6969 20.066 18.2457 20.0252C15.7702 19.7562 13.3923 18.9103 11.3031 17.5555C9.35937 16.3203 7.71141 14.6724 6.47627 12.7286C5.11669 10.6299 4.2706 8.24046 4.00654 5.75383C3.96589 5.30403 4.11616 4.85785 4.42065 4.52429C4.72514 4.19073 5.1558 4.0005 5.60744 4.00008H8.02087C8.82845 3.99213 9.51679 4.5841 9.62982 5.38378C9.73168 6.15613 9.92059 6.91447 10.1929 7.64435C10.414 8.23232 10.2726 8.89515 9.83093 9.34179L8.80925 10.3635C9.95447 12.3775 11.6221 14.0451 13.6361 15.1903L14.6578 14.1686C15.1044 13.727 15.7673 13.5856 16.3552 13.8066C17.0851 14.079 17.8435 14.2679 18.6158 14.3698C19.4248 14.4839 20.0198 15.1861 19.9995 16.0028Z" stroke="#9DA4BD" stroke-linecap="round" stroke-linejoin="round"/>
</svg>

<svg width="24" height="24" fill="none" xmlns="http://www.w3.org/2000/svg"><path clip-rule="evenodd" d="M20 16.003v2.413a1.61 1.61 0 0 1-1.754 1.61 15.921 15.921 0 0 1-6.943-2.47 15.688 15.688 0 0 1-4.827-4.827 15.92 15.92 0 0 1-2.47-6.975A1.609 1.609 0 0 1 5.608 4h2.414A1.609 1.609 0 0 1 9.63 5.384c.102.772.29 1.53.563 2.26.221.588.08 1.251-.362 1.698l-1.022 1.021a12.872 12.872 0 0 0 4.827 4.827l1.022-1.021a1.61 1.61 0 0 1 1.697-.362c.73.272 1.488.46 2.26.563A1.609 1.609 0 0 1 20 16.003Z" stroke="#9DA4BD" stroke-linecap="round" stroke-linejoin="round"/></svg>
